X:1
T:Horn Sonata
T:SONATE
T:L.v.Beethoven,Op.17.
T:für Pianoforte und Horn.
C:L.v.Beethoven
%%score ( 1 2 ) { ( 3 5 ) | ( 4 6 ) }
L:1/8
Q:1/4=126
M:4/4
K:F
V:1 treble transpose=-7 nm="F ホルン"
V:2 treble transpose=-7 
V:3 treble nm="グランドピアノ"
V:5 treble 
V:4 bass 
V:6 bass 
V:1
[K:C]"^Allegro moderato."!f! !tenuto!.G>.G | c7/2 x/ .G2 .E2 | %2
 .C2[K:bass]!8va(! !tenuto!..C,2 z4!8va)! | z8 | z8 | z8 | z8 | z8 | z8[Q:1/4=180] | %9
[Q:1/4=80] z8[Q:1/4=126] | z4[K:treble] z2!f! !tenuto!.G>.G | c7/2 x/ .G2 .E2 | .C2 z2 z!p! (Ged) | %13
 (d.c).c.c (cd/c/) .B.c | (^c2 d2) z (Gfe) | (e.d).d.d (de/d/) .c.d | (^d2 e2) z2 !tenuto!.c>.=d | %17
"_cresc." (!tenuto!..e2 !tenuto!..e2 !tenuto!..e2 !tenuto!..e2) | %18
!mf! f4- .f!>(!(e/f/ g/f/e/d/)!>)! |!p! (d2 c7/2) x/ (d>B) | c2 z2 z4 | d3 !tenuto!.c (c.B).A.G | %22
 c2 z2 z4 | (^c!tenuto!.d)(e!tenuto!.d) (=c.B).A.G | %24
"_cresc." !tenuto!.c2 !tenuto!.C2 z2 !tenuto!.c>.c | !tenuto!.c2 !tenuto!.C2 z2!f! .B2 | %26
 .c2 .d2 .e2 .^f2 | !tenuto!.g!tenuto!.G/!tenuto!.A/ .B.G !tenuto!.c2 !tenuto!.C2 | %28
 !tenuto!.G,!tenuto!.G/!tenuto!.A/ .B.G !tenuto!.c!tenuto!.G!tenuto!.E!tenuto!.C | G,2 z2 z4 | %30
 z4 z2!p! (G>A) | (!tenuto!..B2 !tenuto!..B2 !tenuto!..B2 !tenuto!..B2) | B6 ((B>c)) | %33
 (!tenuto!..d2 !tenuto!..d2 !tenuto!..d2 !tenuto!..d2) | d6!p!"^calando."[Q:1/4=120] ((B>^c)) | %35
 (!tenuto!..d2 !tenuto!..d2 !tenuto!..^c2 !tenuto!..c2) |!pp! B6 z2 | z8 | %38
!p! z (G^F!tenuto!.G) G,2 z2 | z8 | z!pp! !tenuto!.d!tenuto!.d!tenuto!.d d2 z2 | z8 | %42
[Q:1/4=126] z"_cresc." .d.d.d .d.d.d.d |!f! .d.G, !tenuto!.f3 .G.A.B | c2 z2 z4 | z8 | %46
 z2!mp! .G,2 G4- | !tenuto!.G2!mp! .^F2 A4- | !tenuto!.A2!mp! .G2 B4- | !tenuto!.B2!mp! .A2 (c4- | %50
 c2!mp! B2) (d.c).B.A | G2 z2 z2!f! !tenuto!.G>.G | !tenuto!.c2 C2 z2 !tenuto!.c>.c | %53
 !tenuto!.d2 d2 z2 !tenuto!.d>.d | !tenuto!.e2 C2 z4 | z8 | z8[Q:1/4=80] |[Q:1/4=126] z8 | %58
[K:bass]!pp!!<(! (G,,6!<)! ^F,,2) |!pp! G,,2 z2 z4 | z8[Q:1/4=80] |[Q:1/4=126] z8 | %62
!pp!!<(! (G,,6!<)! ^F,,2) |!pp! G,,2 z2 z2[K:treble]!p! !tenuto!.d>.d | (e2 d2) z .d.e.^f | %65
 (g2 d2) z4 | z8 | z4 (3z!p! (d.^c) (3.d.d.d | (e2 d2) (3z!p! (d.^c) (3.d.e.^f | (g2 d2) z4 | z8 | %71
!f! !tenuto!.G !tenuto!.d2 !tenuto!.d d4- | .d !tenuto!.d2 !tenuto!.d d4- | %73
 .d !tenuto!.d2 !tenuto!.d2 !tenuto!.d2 (e/!tenuto!.^f/) | g2 z2!ff! G,2 z2 | G,2 z2 z2 :| z2 | %77
 z8 | z4 z2!p! (G>A) | (!tenuto!.._B2 !tenuto!..B2 !tenuto!..B2 !tenuto!..B2) | %80
 _B6[Q:1/4=120] (B>c) |!pp! (!tenuto!..d2 !tenuto!..d2 !tenuto!..d2 !tenuto!..d2) | %82
 d4- .d!mf![Q:1/4=126]"_cresc."._B.c.d |!f! _e7/2 x/ ._B2 .G2 | ._E2 z2 z4 | _e7/2 x/ ._B2 .G2 | %86
 ._E2 z2 z4 | c7/2 x/ .G2 .=E2 | .C2 z2 z4 | f7/2 x/ .c2 ._A2 | .F2 z2 z4 | f7/2 x/ .c2 .=A2 | %92
 .F2 z2 z4 |!mf! f7/2 x/"_cresc." !tenuto!.f2 !tenuto!.f2 | f7/2 x/ !tenuto!.f2 !tenuto!.f2 | %95
!f! c2 z2 z4 | z8 |!f! .C2 c2- .c._B._A.G | ._A.G.F.E .F.G.A.=B | c z z2 z4 | z8 | %101
!f! .G2 g2- .g!mp!.f._e.d | ._e.d.c.B .c._A.G.^F | G2 z2 z2[K:bass]!pp!!8va(! (C,2 | %104
 G,) z z2 z2 (C,2 | G,) z (C,2 G,) z (C,2 | G,)!8va)! z z2 z4 | z8 | %108
[K:treble] G,2 z2 z2"_cresc." !tenuto!.G>.G | G,2 z2 z2 !tenuto!.G>.G | %110
 !tenuto!.G,2 !tenuto!.G>.G !tenuto!.G,2 !tenuto!.G>.G | .G,.G.G,.G .G,.G.G,.G | %112
 (3.G,.G.G (3.G.G.G (3.G.G.G (3.G.A.B |!ff! c7/2 x/ .G2 .E2 | C2 z2 z4 | z8 | z8 | z8 | %118
 z4 z!p! (Ged) | (d.c).c.c (cd/c/) .B.c | (^c4 d)(Gfe) | (e.d).d.d (de/d/) .=c.d | %122
"_cresc." (^d2 e2- .e)(c=de) |!mf! f4!>(! (edc_B)!>)! |!p! (A_B=Bc) (c_BAG) | F2 z2 z4 | %126
 !tenuto!.c2 .c.c (B.c).d.e | f2 z2 z4 | !tenuto!.C.c.c.c (B.c).d.e | f2 z2 z4 | z8 | %131
!f! !tenuto!.G,.G/.A/ .B.G !tenuto!.c2 !tenuto!.C2 | %132
 !tenuto!.G,.G/.A/ .B.G !tenuto!.c!tenuto!.G!tenuto!.E!tenuto!.C | G,2 z2 z4 | z4 z2!p! (c>d) | %135
 (!tenuto!..e2 !tenuto!..e2 !tenuto!..e2 !tenuto!..e2) | e6 ((e>f)) | %137
 (!tenuto!..g2 !tenuto!..g2 !tenuto!..g2 !tenuto!..g2) | g6!p!"_calando."[Q:1/4=120] ((e>^f)) | %139
 (!tenuto!..g2 !tenuto!..g2[Q:1/4=114] !tenuto!..^f2 !tenuto!..f2) |!pp! e6[Q:1/4=120] z2 | z8 | %142
!p! z (cB!tenuto!.c) C2 z2 | z8 | z!pp! !tenuto!.e!tenuto!.e!tenuto!.e e2 z2 | z8 | %146
[Q:1/4=126] z"_cresc." .e.e.e .e.e.e.e |!f! .e.C !tenuto!.g3 .c.d.e | f2 z2 z4 | z8 | %150
!mp! .C2 .G2 c4- | !tenuto!.c2!mp! .B2 d4- | !tenuto!.d2!mp! .c2 e4- | !tenuto!.e2!mf! .d2 (f4- | %154
 f2 e2) (g.f).e.d | c2 z2 z2!f! !tenuto!.c>.c | !tenuto!.f2 z2 z2 !tenuto!.G>.G | %157
 !tenuto!.G,2 z2 z2 !tenuto!.^c>.c | !tenuto!.d2 z2 z2 !tenuto!.d>.d | !tenuto!.G2 z2 z4 | z8 | %161
[K:bass]!pp!!<(!!8va(! C,15/2 x/!<)! |!p!!>(! G,,15/2 x/!>)! |!pp! C,2!8va)! z2 z4 | z8 | %165
!pp!!<(!!8va(! C,15/2 x/!<)! |!p!!>(! G,,15/2 x/!>)! | %167
!pp! C,2!8va)! z2 z2[K:treble]!p! !tenuto!.G>.G | (A2 G2) z .G.A.B | (c2 G2) z4 | z8 | %171
 z4 (3z!p! (G.^F) (3.G.G.G | (A2 G2) (3z (G.^F) (3.G.A.B | (d2 c2) z4 | z8 | %175
!f! !tenuto!.C/.E/.G/.c/ .e/.c/.e/.c/ g7/2 x/ | !tenuto!.g/.e/.c/.G/ .c/.G/.E/.C/ G,7/2 x/ | %177
 !tenuto!.C/.E/.G/.c/ .e/.c/.e/.c/ g4- | .g"_cresc." !tenuto!.g2 !tenuto!.g2 !tenuto!.g2 g- | %179
 .g!ff!.g/.e/ .c/.G/.E/.G/ !tenuto!.C.e/.c/ .G/.E/.C/.G,/ |[K:bass]!8va(! C,2 z2 C,2 z2 | %181
 C,2!8va)! z2 z2 |] %182
[K:Eb][M:2/4][K:treble transpose=-7]"^Poco Adagio, quasi Andante."[Q:1/8=70]!p! !tenuto!.c/>.c/ | %183
[Q:1/8=72] (_ec/)z/4.c/4 (_ec/)z/4.c/4 | .=B.d z2 | z4 | z2 z!pp! (c/>d/) | ._e.e/>.e/ .e.e/>.e/ | %188
 ._e.d z2 | z4 | z2 z!p! !tenuto!._B/>.B/ | (_dB/)z/4.B/4 (dB/)z/4!mp!.B/4 | f3!p! (_e/=d/) | %193
 (d/.c/).c/.c/ (c/d/4.c/4) .=B/.c/ |!pp! !tenuto!.d!tenuto!.g/>.g/ g z | z !tenuto!.G/>.G/ G z | %196
 z !tenuto!.G,/>.G,/ G, !tenuto!.G,/>.G,/ | G, !tenuto!.G,/>.G,/ G, !tenuto!.G,/>.G,/ | %198
 !tenuto!.G,[Q:1/8=68]"_cresc."!tenuto!.G[Q:1/8=64]!tenuto!.G,[Q:1/8=60]!tenuto!.G, | %199
!p! !fermata!G,2[Q:1/8=92]"^\n\n" x4[Q:1/8=72] x[Q:1/8=140] x4[Q:1/8=60] !fermata!z2[Q:1/8=72] || %200
[K:C][M:2/2]"^RONDO""^Allegro moderato."[Q:1/2=72] z4 | z8 | z8 | z8 | z4!p! .G2 .G2 | %205
"_cresc." c7/2 x/ C7/2 x/ | B,7/2 x/ f7/2 x/ | %207
!p! (f!tenuto!.e) (e!tenuto!.d) (d!tenuto!.c) (c!tenuto!.B) | (d4 !tenuto!.c2) !tenuto!.G2 | %209
 (d4 !tenuto!.e2) !tenuto!.c2 | g2 z2 z2 !tenuto!.G2 | (d4 !tenuto!.e2) !tenuto!.c2 | %212
 g2 z2!p! .G2 .G2 | c7/2 x/"_cresc." C7/2 x/ | B,7/2 x/ f7/2 x/ | %215
!p! (f!tenuto!.e) (e!tenuto!.d) (d!tenuto!.c) (c!tenuto!.B) | (d4 !tenuto!.c2) !tenuto!.G2 | %217
 e4 (!tenuto!..e2 !tenuto!..e2) | (d4 g4) | (c3 d/!tenuto!.c/) (B2 c2) | (e4 d2) z2 | z8 | z8 | %223
 z8 | z2 .d2 .d2 .d2 |!<(! d6!<)! ^c2 |!p! !tenuto!.d2 !tenuto!.d2 !tenuto!.d2 !tenuto!.d2 | %227
!<(! d6!<)! ^c2 |!p! d2 z2 z4 | z8 | z8 | z2 (!tenuto!..d2 !tenuto!..d2 !tenuto!..d2) | %232
 !tenuto!.d2 (g.^f) .e.d.c.B | c2 z2 z2 .d.d | .d(B.g).^f .e.d.c.B | c2 z2 z4 | %236
 .G.^F.G.A!<(! .B.c.d.^d!<)! |!f! .e2 C2 z4 | z2!p! d2 z2 d2 | z8 |!f! .G,.G.A.B .c.d.e.c | %241
 B2 z2 z4 |!p! (G4 G,7/2) x/ | (G4 G,7/2) x/ | (G2 !tenuto!.G,2) (G2 !tenuto!.G,2) | %245
 (G4 G,7/2) x/ | z8 | z8 | z8 | z4!p! .G2 .G2 |"_cresc." c7/2 x/ C7/2 x/ | B,7/2 x/ f7/2 x/ | %252
!p! (f!tenuto!.e) (e!tenuto!.d) (d!tenuto!.c) (c!tenuto!.B) | (d4 !tenuto!.c2) !tenuto!.G2 | %254
 (d4 !tenuto!.e2) !tenuto!.c2 | g2 z2 z2 !tenuto!.G2 | (d4 .e2) .c2 | g2 z2 z4 | z8 | %259
"_cresc." G7/2 x/ G,7/2 x/ | C2 z2 z4 | z4 z2!p! !tenuto!.E2 | e4 (dcBA) | B4 E7/4 x/4 E7/4 x/4 | %264
 .A2 .A2 (A2 Bc) | B4 e4- | (!tenuto!..e2 !tenuto!..e2) (e2 _e2) | d6 (d2 | %268
 c7/4) x/4 (c2 A7/4) x/4 (A2 | G2) z2 z4 | z8 |!p! .e2 !tenuto!.E2 z4 | z8 | .e2 !tenuto!.E2 z4 | %274
 z8 | (c4 !tenuto!.B2) !tenuto!.G2 | z8 | z4!p! !tenuto!.g2 !tenuto!.g2 | g4 (fed!tenuto!.^c) | %279
{/e} (d^cde) !tenuto!.f2 !tenuto!.f2 | (f3 e) (dcBA) | (^G.e).e.e .e.e.e.e | e4 (dcBA) | f6 (d2 | %284
 !tenuto!.e2) .e2 .e2 .e2 | A2 z2 z4 | z8 | z8 | z8 | z2!p! !tenuto!.E2 !tenuto!.E2 !tenuto!.E2 | %290
 e4 (dcBA) | A2 z2 z4 | z2 !tenuto!.E2 !tenuto!.E2 !tenuto!.E2 | E2 z2 z4 | z8 | z8 | z8 | %297
 z2!p! .G,2 z2 .G,2 | !tenuto!.f3 .e .d.c.B.A | !tenuto!.G3 .A .B.c.d.e | !tenuto!.f3 .e .d.c.B.A | %301
[Q:1/2=68]{/A} .G.^F{/A}.G.F[Q:1/2=64] .G.A[Q:1/2=60]._B.=B |[Q:1/2=72]!p! c7/2 x/ C7/2 x/ | %303
 B,7/2 x/ f7/2 x/ |!p! (f!tenuto!.e) (d!tenuto!.c) (B!tenuto!.A) (g!tenuto!.f) | (e4 d2) z2 | z8 | %307
!p!"_cresc." G7/2 x/ G,7/2 x/ |!mp! C2 z2 z4 |[Q:1/2=70] z4[Q:1/2=64] z2!p! !tenuto!.G2[Q:1/2=68] | %310
[Q:1/2=72] (d4 .e2) .c2 | g2 z2 z2 !tenuto!.G2 | (d4 .e2) .c2 | g2 z2 z4 | z8 | %315
!p!"_cresc." G7/2 x/ G,7/2 x/ |!mp! C2 z2 z4 | z4 z2 c2- | .c2 .C2 z2 c2- | .c2 .C2 z2 (c2 | %320
 !tenuto!.g2) !tenuto!.g!tenuto!.g (g.f).e.d | !tenuto!.c2 z2"_cresc." (3.C.c.c (3.c.c.c | %322
 !tenuto!.c2 z2 (3.C.c.c (3.c.c.c | !tenuto!.c2 z2 (3.C.c.c (3.c.c.c | %324
 (3.C.c.c (3.c.c.c (3.C.c.c (3.c.c.c | (3.G,.G.G (3.G.G.G (3.G,.G.G (3.G.G.G | %326
 (3.G,.G.G (3.G.G.G (3.G,.G.G (3.G.G.G |!f! G,2 z2 z4 | %328
!ff!!<(! (3.G,.G.G[Q:1/2=70] (3.G.G.G[Q:1/2=66] (3.G.A.B[Q:1/2=62] (3.c.d.e!<)! |[Q:1/2=72] f8- | %330
!>(! !fermata!f3 !fermata!x!>)!!pp! .G2 .G2 | c7/2 x/ C7/2 x/ | B,2 z2!p! .G2 .G2 | %333
 c7/2 x/ C7/2 x/ |!<(! B,2 z2 .G2 .G2 | c7/2 x/ C7/2!<)! x/ |!ff! _B15/2 x/ |!p! A2 z2 z4 | z8 | %339
!f! .c(g/.e/) (3.c.G.E .c.g/.e/ .c/.G/.E/.C/ | G,2 z2 z4 | %341
 .c(g/.e/) (3.c.G.E .c.g/.e/ .c/.G/.E/.C/ | G,2 z2 z4 | z2 .G,2 .C2 .E2 | .G2 .G2 .c2 .e2 | %345
 (g4- g^f=fe) | !trill(!Td8[Q:1/2=68][Q:1/2=64][Q:1/2=60] |[Q:1/2=72] c2 z2 z4 | z8 | %349
!p! (c4- cdef) | (!tenuto!..g2 !tenuto!..g2 !tenuto!..g2 !tenuto!..g2) | c2 z2 z4 | z8 | %353
 (c4- cdef) | (^f.g).g.g .g.g.g.g | c2 z2 z4 |"_rallentando." z8 | %357
[Q:1/2=70] z8[Q:1/2=68][Q:1/2=66] | z4!pp![Q:1/2=64] .G2 .G2 |[Q:1/2=62] c7/2 x/ C7/2 x/ | %360
[Q:1/2=60] B,7/2 x/ f7/2 x/ | %361
[Q:1/2=58] (f!tenuto!.e) (e!tenuto!.d)[Q:1/2=56] (d!tenuto!.c)[Q:1/2=54] (c!tenuto!.B) | %362
[Q:1/2=84]!mf!"^Allegro moderato." c2 z2!f! (3.G.g.g (3.g.g.g | g2 z2 (3.G.g.g (3.g.g.g | %364
 g2 z2 z4 |!ff! (3.c.g.e (3.c.e.c (3.G.c.G (3.E.G.E | %366
 !tenuto!.C2 z2[K:bass]!8va(! !tenuto!.C,2 z2 | !tenuto!.C,2!8va)! z2 |] %368
V:2
[K:C] x2 | x8 | x2[K:bass]!8va(! x6!8va)! | x8 | x8 | x8 | x8 | x8 | x8 | x8 | x4[K:treble] x4 | %11
 x8 | x8 | x8 | x8 | x8 | x8 | x8 | x8 | x8 | x8 | x2- x3/4 x/4 x x4 | x8 | x8 | x8 | x8 | x8 | %27
 x8 | x8 | x8 | x8 | x8 | x4- x x x2 | x8 | x4- x x x2 | x8 | x8 | x8 | x8 | x8 | x8 | x8 | x8 | %43
 x8 | x8 | x8 | x8 | x8 | x8 | x8 | x8 | x8 | x8 | x8 | x8 | x8 | x8 | x8 | %58
[K:bass] x4-!p!!>(! x2 x2!>)! | x2 x2 x4 | x8 | x8 | x4-!p!!>(! x2 x2!>)! | x2 x2 x4[K:treble] | %64
 x8 | x8 | x8 | x8 | x8 | x8 | x8 | x8 | x8 | x8 | x8 | x6 :| x2 | x8 | x8 | x8 | x4- x x x2 | x8 | %82
 x8 | x8 | x8 | x8 | x8 | x8 | x8 | x8 | x8 | x8 | x8 | x8 | x8 | x8 | x8 | x8 | x8 | x8 | x8 | %101
 x8 | x8 | x6[K:bass]!8va(! x2 | x8 | x8 | x!8va)! x7 | x8 |[K:treble] x8 | x8 | x8 | x8 | x8 | %113
 x8 | x8 | x8 | x8 | x8 | x8 | x8 | x8 | x8 | x8 | x8 | x8 | x8 | x8 | x8 | x8 | x8 | x8 | x8 | %132
 x8 | x8 | x8 | x8 | x4- x x x2 | x8 | x4- x x x2 | x8 | x8 | x8 | x8 | x8 | x8 | x8 | x8 | x8 | %148
 x8 | x8 | x8 | x8 | x8 | x8 | x8 | x8 | x8 | x8 | x8 | x8 | x8 |[K:bass]!8va(! x8 | x8 | %163
 x2!8va)! x6 | x8 |!8va(! x8 | x8 | x2!8va)! x2 x4[K:treble] | x8 | x8 | x8 | x8 | x8 | x8 | x8 | %175
 x8 | x8 | x8 | x8 | x8 |[K:bass]!8va(! x8 | x2!8va)! x4 |][K:Eb][M:2/4][K:treble transpose=-7] x | %183
 x4 | x4 | x4 | x4 | x4 | x4 | x4 | x4 | x4 | x2- x3/4 x/4 x | x4 | x4 | x4 | x4 | x4 | x4 | x13 || %200
[K:C][M:2/2] x4 | x8 | x8 | x8 | x8 | x8 | x8 | x8 | x8 | x8 | x8 | x8 | x8 | x8 | x8 | x8 | x8 | %217
 x8 | x8 | x8 | x8 | x8 | x8 | x8 | x8 | x4-!p!!>(! x2 x2!>)! | x8 | x4-!p!!>(! x2 x2!>)! | x8 | %229
 x8 | x8 | x8 | x8 | x8 | x8 | x8 | x8 | x8 | x8 | x8 | x8 | x8 | x8 | x8 | x8 | x8 | x8 | x8 | %248
 x8 | x8 | x8 | x8 | x8 | x8 | x8 | x8 | x8 | x8 | x8 | x8 | x8 | x8 | x8 | x8 | x8 | x8 | x8 | %267
 x8 | x8 | x8 | x8 | x8 | x8 | x8 | x8 | x8 | x8 | x8 | x8 | x8 | x3 x3/4 x/4 x3 x3/4 x/4 | x8 | %282
 x6 x x3/4 x/4 | x4- .x2 x2 | x8 | x8 | x8 | x8 | x8 | x8 | x8 | x8 | x8 | x8 | x8 | x8 | x8 | x8 | %298
 x8 | x8 | x8 | x8 | x8 | x8 | x8 | x8 | x8 | x8 | x8 | x8 | x8 | x8 | x8 | x8 | x8 | x8 | x8 | %317
 x8 | x8 | x8 | x8 | x8 | x8 | x8 | x8 | x8 | x8 | x8 | x8 | x8 | x8 | x8 | x8 | x8 | x8 | x8 | %336
 x8 | x8 | x8 | x8 | x8 | x8 | x8 | x8 | x8 | x8 | %346
 x/x/x/x/ (6:4:6x/x/x/x/x/x/ (6:4:6x/x/x/x/x/x/ (6:4:5x/x/!trill)!x (c/d/) | x8 | x8 | x8 | x8 | %351
 x8 | x8 | x8 | x8 | x8 | x8 | x8 | x8 | x8 | x8 | x8 | x8 | x8 | x8 | x8 | x4[K:bass]!8va(! x4 | %367
 x2!8va)! x2 |] %368
V:3
"^Allegro moderato." z2 | z8 | z4 z!p! (cag) | (g.f).ff (.fg/f/) .e.f | (^f4 .g)(cba) | %5
 (a.g).g.g (ga/g/) .=f.g | ([e^g]4 .[fa])(fc'b) | (Pba) (Pa=g) (Pgf) (Pfe) | %8
 (Ped) (Pdc) (PcB) (PBA) |({GAB)} (A>G) !>!d4 (c/B/A/G/) | %10
 (G2!<(! !invertedturn!F3 x/4x/4x/4x/4 G>E)!<)! |!f! [Ff]4 .[Cc]2 .[A,A]2 | %12
[K:bass]!p! [F,F]/C,/F,/C,/ A,,/C,/F,/C,/ A,,/C,/F,/C,/ A,,/C,/F,/C,/ | %13
 A,,/C,/F,/C,/ A,,/C,/F,/C,/ A,,/C,/F,/C,/ A,,/C,/F,/C,/ | %14
 B,,/C,/E,/C,/ B,,/C,/E,/C,/ B,,/C,/E,/C,/ B,,/C,/E,/C,/ | %15
 B,,/C,/E,/C,/ B,,/C,/E,/C,/ B,,/C,/E,/C,/ B,,/C,/E,/C,/ | %16
 A,,/C,/F,/C,/ A,,/C,/F,/C,/ A,,/C,/F,/C,/ A,,/C,/F,/C,/ | %17
 C,/"_cresc."_E,/A,/E,/ C,/_G,/A,/G,/ C,/F,/A,/F,/ C,/E,/A,/E,/ | %18
!mf! D,/F,/B,/F,/ D,/^F,/B,/F,/ D,/=G,/B,/G,/ B,,/D,/G,/D,/ | %19
!p! A,,/C,/=F,/C,/ A,,/C,/F,/C,/ B,,/C,/=E,/C,/ B,,/E,/C,/B,,/ | %20
[K:treble]!p! z/ A,/C/F/ A/c/f/c/ (a/g/)f/e/ d/c/B/A/ | B2 z2 z4 | %22
!p! A/A,/C/F/ A/c/f/c/ (a/g/)f/e/ d/c/B/A/ | B2 z2 z4 | %24
"_cresc." F/[I:staff +1]F,/E,/F,/ E,/F,/G,/A,/ B,/G,/^F,/G,/ F,/G,/A,/B,/ | %25
 C/A,/^G,/A,/ G,/A,/B,/C/[I:staff -1] .D/B,/A,/B,/!f! .E/C/=B,/C/ | %26
 .F/D/^C/D/ .G/E/^D/E/ .A/F/E/F/ .G/F/E/=D/ | =C2 z2 z/ A,/C/F/ A/c/f/a/ | %28
 g2 z2 z/!<(! A,/C/F/ A/c/f/a/!<)! |!ff! gc'/g/ e/c/G/E/ z c/G/ E/C/[I:staff +1]G,/E,/ | %30
[I:staff -1] z8 | z2[K:bass]!p! (.[E,G,C]2 .[E,G,C]2 .[E,G,C]2) | [E,G,C]6 z2 | %33
 z2 (.[E,^A,E]2 .[E,A,E]2 .[E,A,E]2) | [E,^A,E]6"_calando." z2 | %35
!p! (.[G,=B,E]2 .[G,B,E]2 .[=A,B,^D]2 .[A,B,D]2) | %36
!pp! [=B,E]6[K:treble]"^""^" (!invertedturn!c>d) | (.e2 .[Gce]2 .[Gce]2 .[Gce]2) | %38
 [Gce]6 (!invertedturn!e>f) | (.g2 .[^Aeg]2 .[Aeg]2 .[Aeg]2) | %40
 [^Aeg]6"^""^" (!invertedturn!e>^f) |"_calando." (.[=Beg]2 .[Beg]2) (.[A^d^f]2 .[Adf]2) | %42
 [G=Be]6 z2 | z4 ((([e_be']4 |!f! [faf']))).A (c'3 =b/a/ g/f/e/d/) | (d.c).c.c (Tc2{=Bc} d=B) | %46
 cC/c/ C/"_cresc."c/=B,/=B/ A,/A/G,/G/[I:staff +1] F,/[I:staff -1]F/[I:staff +1]E,/[I:staff -1]E/ | %47
 D,/D/D/d/ D/d/C/c/ =B,/=B/A,/A/ G,/G/F,/F/ | %48
[I:staff +1] E,/[I:staff -1]E/E/e/ E/e/D/d/ ^C/^c/_B,/_B/ A,/A/G,/G/ | %49
[I:staff +1] F,/[I:staff -1]F/F/f/ F/f/E/e/ D/d/=C/=c/ =B,/=B/A,/A/ | %50
 z (=B,/=B/) z (C/c/) z (A,/A/) z (B,/B/) |!f! [Cc]2 .[Gg]2 [cc']4- | [cc']2 .[=B=b]2 [dd']4- | %53
 [dd']2 .[^c^c']2 [ee']4- | [ee']2 .[dd']2 [ff']4- | %55
 [ff'] z/ [ac'f']/z/[ac'f']/z/[g=be']/ z/ [fad']/z/[egc']/z/[dfb]/z/[cea]/ | %56
 z/ [=Bdg]/z/[Acf]/z/[GBe]/z/[FAd]/ z/ [EGc]/z/[DFB]/z/[CEA]/z/[=B,DG]/ | %57
!p! (([A,C_E^F]4 [^G,=B,D=F]4)) |!pp!!<(! [CE]2 [C_E]2!<)!!p!!>(! [CD]2 [=B,G]2!>)! | %59
!pp! [CE]!f! z/ [gbe']/z/[gbe']/z/[fad']/ z/ [egc']/z/[df=b]/z/[cea]/z/[=Bdg]/ | %60
 z/ [Acf]/z/[G=Be]/z/[FAd]/z/[EGc]/ z/ [DFB]/z/[CEA]/z/[=B,DG]/z/[A,C_E^F]/ | %61
!p!!p! ([D=F]4 [C=E]4) |!pp!!<(! [C_E]4!<)!!p!!>(! [CD]2!pp! [=B,DG]2!>)! | %63
[K:bass]!p! =E,/G,/C/G,/ E,/G,/C/G,/ E,/G,/C/G,/ E,/G,/C/G,/ | %64
 F,/G,/=B,/G,/ F,/G,/B,/G,/ F,/G,/B,/G,/ F,/G,/B,/G,/ | %65
 z4 z3/2[K:treble]!p! !tenuto!.c<!tenuto!.d!tenuto!.e/ | %66
 (g!tenuto!.f)(e!tenuto!.d) (d!tenuto!.c)(c!tenuto!.=B) | %67
 c[K:bass]!p! C/G,/ E,/G,/C/G,/ E,/G,/C/G,/ E,/G,/C/G,/ | %68
 F,/G,/=B,/G,/ F,/G,/B,/G,/ F,/G,/B,/G,/ F,/G,/B,/G,/ | z4[K:treble] (3z{/d'} (c'.=b) (3.c'.d'.e' | %70
 (3.f'.e'.d' (3.c'.=b.a (3.g.f.e (3.d.c.=B | c2 z2 z!f! (g/a/ =b/c'/d'/b/ | %72
 c'2) z2 z (3(f'/e'/d'/ (3c'/=b/a/ (3g/a/b/ | %73
 .c')(3(f'/e'/d'/ (3c'/=b/a/ (3g/a/b/ .c')(3(f'/e'/d'/ (3c'/b/a/ (3g/a/b/ | c'2) z2!ff! [EGc]2 z2 | %75
 C2 z2 z2 :|!ff! [G,G]>[G,G] | [Cc]4 .G2 ._E2 | .C2 z2 z4 | z2!p! (.C2 .C2 .C2) | C6 z2 | %81
 z2!pp! (._D2 .D2 .D2) | _D6 z2 | %83
!f![I:staff +1] C,/_A,/_E,/C/ E,/C/A,/[I:staff -1]_E/ A,/E/C/_A/ C/A/E/c/ | %84
 _E/c/_A/_e/ A/e/c/_a/ c/a/e/c'/ e/c'/a/_e'/ | %85
[I:staff +1] C,/_A,/_E,/[I:staff -1]C/[I:staff +1] E,/[I:staff -1]C/[I:staff +1]A,/[I:staff -1]_E/[I:staff +1] A,/[I:staff -1]E/C/_A/ C/A/E/c/ | %86
 _E/c/_A/_e/ A/e/c/_a/ c/a/e/c'/ e/c'/a/_e'/ | %87
[I:staff +1] C,/=A,/_E,/C/ E,/C/A,/[I:staff -1]_E/[I:staff +1] A,/[I:staff -1]E/C/=A/ C/A/E/c/ | %88
 _E/c/A/_e/ A/f/c/a/ B/f/_d/b/ c/a/e/c'/ | %89
[I:staff +1] _D,/B,/F,/_D/ F,/D/B,/[I:staff -1]F/ B,/F/D/B/ D/B/F/_d/ | %90
 F/_d/B/f/ B/f/d/b/ d/b/f/_d'/ f/d'/b/f'/ | %91
[I:staff +1] =D,/B,/F,/=D/ F,/D/B,/F/ B,/[I:staff -1]F/=D/B/ D/B/F/=d/ | %92
 F/=d/B/f/ B/f/d/b/ d/b/f/=d'/ f/d'/b/f'/ | %93
!mf! B/b/_e/b/ e/_e'/b/e'/"_cresc." B/b/e/b/ e/e'/b/e'/ | %94
 B/b/=e/b/ e/=e'/b/e'/ B/b/e/b/ e/e'/b/e'/ |!f! [f=af'] z f'2- f'._e'._d'.c' | %96
{/_e'} ._d'.c'.b.a .b.c'.d'.=e' | .f' .[A,CF].[A,CF].[A,CF] z .[C_EF].[CEF].[CEF] | %98
 z .[B,_DF].[B,DF].[B,DF] z .[G,B,DE].[G,B,DE].[G,B,DE] | [_A,CF] z c'2- c'.b._a.g | %100
{/_b} ._a.g.f.e .f.g.a.=b | c' .[G,CE].[G,CE].[G,CE] z .[G,B,E].[G,B,E].[G,B,E] | %102
 z .F.F.F z .F.F.F |!pp! z/ (c/e/g/ c'/b/_a/g/) (a/c/f/a/ c'/a/g/f/) | %104
 (g/c/e/g/ c'/b/_a/g/) (a/c/f/a/ c'/a/g/f/) | (g/c/e/g/ c'/_a/g/f/) (g/c/e/g/ c'/a/g/f/) | %106
 g/C/E/G/ c/=B/c/B/ c/B/=A/G/ F/E/D/C/ | =B,/D/F/=B/ d/^c/d/c/ d/=c/B/A/ G/F/E/D/ | %108
 C/E/G/c/ e/^d/e/d/ e/=d/c/=B/"_cresc." A/G/F/E/ | D/F/=B/d/ f/e/f/e/ f/e/d/c/ B/A/G/F/ | %110
 G/g/^f/g/ f/g/G/g/ A/a/^g/a/ g/a/A/a/ | _B/_b/a/b/ B/b/A/a/ B/b/A/a/ B/b/A/a/ | %112
!ff! B/b/A/a/ G/g/F/f/ E/e/D/d/ C/c/B,/B/ | [A,A]2 z2 z4 |!ff! [ff']4 .[cc']2 .[Aa]2 | %115
!p! (g.f).ff (.fg/f/) .e.f | (^f4 .g)(cba) | (a.g).g.g (ga/g/) .=f.g | ([e^g]4 .[fa]) z z2 | %119
[K:bass]!p! A,,/C,/F,/C,/ A,,/C,/F,/C,/ A,,/C,/F,/C,/ A,,/C,/F,/C,/ | %120
 B,,/C,/E,/C,/ B,,/C,/E,/C,/ B,,/C,/E,/C,/ B,,/C,/E,/C,/ | %121
 B,,/C,/E,/C,/ B,,/C,/E,/C,/ B,,/C,/E,/C,/ B,,/C,/E,/C,/ | %122
"_cresc." A,,/C,/F,/C,/ A,,/C,/F,/C,/ C,/F,/A,/F,/ C,/F,/A,/F,/ | %123
!mp! D,/F,/B,/F,/ D,/F,/B,/F,/ _E,/G,/B,/G,/ E,/G,/B,/G,/ | %124
!p! D,/F,/B,/F,/ D,/F,/B,/F,/ _E,/F,/A,/F,/ E,/A,/F,/E,/ | %125
[K:treble]!p! z/ D/F/B/ d/f/b/f/ (d'/c'/)b/a/ g/f/_e/d/ | _e2 z2 z4 | %127
 d/D/F/B/ d/f/b/f/ (d'/c'/)b/a/ g/f/_e/d/ | _e2 z2 z4 | %129
 z/ D/F/B/"_cresc." d/f/b/d'/ z/ =E/G/B/ e/g/b/e'/ | z/ F/A/c/ f/a/c'/f'/ z/ =B,/D/F/ =B/d/f/=b/ | %131
!f! [cc']2 z2 z/ A,/C/F/ A/c/f/a/ | g2 z2 z/ A,/C/F/ A/c/f/a/ | %133
!ff! gc'/g/ e/c/G/E/ z c/G/ E/C/[I:staff +1]G,/E,/ |[I:staff -1] z4 z2 z2 | %135
 z2!p! (.[A,CF]2 .[A,CF]2 .[A,CF]2) | [A,CF]6 z2 | z2 (.[A,^DA]2 .[A,DA]2 .[A,DA]2) | [A,^DA]6 z2 | %139
!p!"_calando." (.[CEA]2 .[CEA]2 .[=DE^G]2 .[DEG]2) |!pp! [EA]6[K:treble] (!invertedturn!f>g) | %141
 (.a2 .[cfa]2 .[cfa]2 .[cfa]2) | [cfa]6 (!invertedturn!a>b) | (.c'2 .[^dac']2 .[dac']2 .[dac']2) | %144
 [^dac']6"^""^" (!invertedturn!a>=b) |"_calando." (.[eac']2 .[eac']2) (.[=d^g=b]2 .[dgb]2) | %146
 [cea]6 z2 | z4 ([_e_e']4 |!f! .d').d (f'3 =e'/d'/ c'/b/a/g/) | (g.f).f.f (Tf2{ef} g=e) | %150
 f"_cresc."F/f/ F/f/E/e/ D/d/C/c/ B,/B/A,/A/ | G,/G/G/g/ G/g/F/f/ E/e/D/d/ C/c/B,/B/ | %152
 A,/A/A/a/ A/a/G/g/ ^F/^f/_E/_e/ D/d/C/c/ | B,/B/B/b/ B/b/A/a/ G/g/=F/=f/ =E/=e/D/d/ | %154
 z (E/e/) z (F/f/) z (D/d/) z (E/e/) |!f! .[Ff]2 .[Cc]2 [Ff]4- | [Ff]2 .[Ee]2 [Gg]4- | %157
 [Gg]2 .[^F^f]2 [Aa]4- | [Aa]2 .[Gg]2 [Bb]4- | %159
 [Bb] z/ [dfb]/z/[dfb]/z/[cea]/ z/ [Bdg]/z/[Acf]/z/[GBe]/z/[FAd]/ | %160
 z/ [EGc]/z/[DFB]/z/[CEA]/z/[B,DG]/ z/ [A,CF]/z/[G,B,E]/z/D/z/C/ |!<(! =B,4 D4!<)! | %162
!p!!>(! C4 C4!>)! | %163
!pp! [FA]!f! z/ [ac'f']/z/[ac'f']/z/[gbe']/ z/ [fad']/z/[egc']/z/[dfb]/z/[cea]/ | %164
 z/ [Bdg]/z/[Acf]/z/[GBe]/z/[FAd]/ z/ [EGc]/z/[DF=B]/z/[_DF_B]/z/[CFA]/ | %165
!pp!!<(! [=B,=DF_A]4 [F,B,F]4!<)! |!p!!>(! [G,CF]4 [G,CE]4!>)! | [=A,CF]2 z2 z4 | z8 | %169
 z4 z3/2[K:treble]!p! !tenuto!.f<!tenuto!.g!tenuto!.a/ | %170
 (c'!tenuto!.b)(a!tenuto!.g) (g!tenuto!.f)(f!tenuto!.e) | f2 z2 z4 | z8 | %173
 z4 (3z!p!{/g} (fe) (3.f.g.a | (3.b.a.g (3.f.e.d (3.c.B.A (3.G.F.E | F2 z2!f! (b/a/g/f/ e/d/c/B/ | %176
 A2) z2 (e/f/g/a/ b/c'/d'/e'/ | f'2) z2 (e/f/g/a/ b/c'/d'/e'/ | %178
"_cresc." f'/)c'/=b/c'/ ^c'/d'/_e'/=e'/ f'/=c'/b/c'/ ^c'/d'/_e'/=e'/ |!ff! f'2 z2 [cfac']2 z2 | %180
 [Acfa]f/c/ A/F/C/A,/ z F/C/[I:staff +1] A,/F,/C,/A,,/ |[I:staff -1] z4 z2 |] %182
[K:Ab][M:2/4]"^Poco Adagio, quasi Andante." z | %183
!p![I:staff +1] !tenuto!..[F,A,C][I:staff -1] z[I:staff +1] !tenuto!..[F,A,C][I:staff -1] z | %184
[I:staff +1] .[=E,G,C].[E,G,C][I:staff -1] z f/>f/ | (af/)z/4.f/4 (af/)z/4.f/4 | .[=ec'].[Gc] z2 | %187
!pp! .[CF].[CF]/>.[CF]/ .[_CF].[CF]/>.[CF]/ | .[B,F].[B,E] z!pp! .[=cf]/>.[cf]/ | %189
 .[eb].[eb]/>.[eb]/ .[A=d].[Ad]/>.[Ad]/ | [Ge] z z2 |[K:bass]!p! [_G,B,] z [G,B,] z | %192
 [F,B,]3!p! ([F,-B,] | [F,=B,])[A,B,][G,B,][F,B,] |!pp! [=E,C] z z[K:treble] [=da]/>[da]/ | %195
 [=eg] z z [Af]/>[Af]/ | [G=e] z z [FA=B=d]/>[FABd]/ | %197
 [=EGc] [FA=B=d]/>[FABd]/ [EGc] [FABd]/>[FABd]/ | %198
 ([=EGc-]"_cresc."c/4=B/4=d/4c/4 =e/4d/4f/4e/4g/4^f/4=a/4g/4) | %199
!p! !fermata![=e_b]2 b/4=a/4g/4^f/4!>(!g/4a/4b/4c'/4=d'/4c'/4b/4a/4g/4=f/4=e/4=d/4c/4^c/4d/4!>)!=A/4!pp! =c4 !fermata![=EB]2 || %200
[K:F][M:2/2]"^Allegro moderato."!p! .c2 .c2 | (f4 F4) | E4 b4 | (Pba) (Pgf) (Ped) (c'b) | %204
 (a4 g2) z2 |[I:staff +1] .[F,A,]"_cresc.".[G,B,].[A,C].[B,D][I:staff -1] .[CE].[DF].[EG].[FA] | %206
 .[GB].[Ac].[Bd].[ce] .[df].[eg].[fa].[gb] |!p! z [fa] z [B,D] z [A,C] z [G,B,] | %208
 z [B,E] z [B,E] [A,F]2 z2 | z8 |!p! (3(c'=bd' (3c'_ba (3gfe (3faf) | c2 z2 z4 | %212
"_cresc." (3(c'=bd' (3c'_ba (3gfe (3dc!p!B) |!p! A2 z2 z4 |"_cresc." [Bb]4 [Ee]4 | %215
!p! z [Ff] z [B,D] z [A,C] z [G,B,] | z [B,E] z [B,E] [A,F]2 z2 | %217
[K:bass]!p! (3(C,F,A, (3CA,F,) (3(C,F,A, (3CA,F,) | (3(C,E,G, (3CG,E,) (3(C,E,G, (3CG,E,) | %219
 (3(C,F,A, (3CA,F,) (3(C,G,B, (3C,F,A,) |[K:treble] (3z!p! FG (3AB=B (3cde (3fg^g | a4 (.a2 .a2) | %222
 (a6 g2 | f2 e2 d2 c2 | =B2) z2 z4 |!<(! z2 (3(ga=b!<)!!>(! (3c'bc' (3_e'd'c'!>)! |!p! =b2) z2 z4 | %227
 z/!<(! (g/^f/g/ ^g/a/_b/=b/!<)!!mf!!>(! c'/d'/_e'/d'/ f'/e'/d'/c'/)!>)! | %228
!mp! (3.=b.d'.c'!f! (3.b.a.=g (3.^f.=e.d (3.c.=B.A | (3.=B.d.c (3.B.A.=G (3.^F.=E.D (3.C.=B,.A, | %230
 (3.=B,.D.C (3.B,[I:staff +1].A,.=G,!>(! (3.^F,.=E,.D, (3.C,.=B,,.A,,!>)! | %231
 G,,[I:staff -1] z z2 z4 | z8 |!p! f2 (d'c') .=b.a.g.f | e2 z2 z4 | f(dd').c' .=b.a.g.f | %236
 e2 z2 z4 |!f! (fefg a=bc'a) |!p! (3.g!p!(c'.=b) (3.c'.g.e (3.d(g.^f) (3.g.=f.d | %239
 (C/c/)(=B,/=B/)!<(! (C/c/)(D/d/) (E/e/)(F/f/) (G/g/)(^G/^g/)!<)! |!f! [Aa]4- [Aa][=B=b][cc'][Aa] | %241
!mp! (3[Gg]!p! (e'.d') (3.c'.=b.a (3.g(a.g) (3.f.e.d | (3cGE[I:staff +1] (3CG,E, (3C,E,G, (3CG,E, | %243
[I:staff -1] x8 | x8 | %245
"_cresc." z/[I:staff +1] E,/F,/G,/ A,/B,/C/D/[I:staff -1] E/F/G/A/ B/c/d/!mp!e/ |!p! (f4 F4) | %247
 E4 b4 | (Pba) (Pgf) (Ped) (c'b) | (a4 g2) z2 | %250
[I:staff +1] .[F,A,]"_cresc.".[G,B,].[A,C].[B,D][I:staff -1] .[CE].[DF].[EG].[FA] | %251
 .[GB].[Ac].[Bd].[ce] .[df].[eg].[fa].[gb] |!p! z [fa] z [B,D] z [A,C] z [G,B,] | %253
 z [B,E] z [B,E] [A,F]2 z2 | z8 |!p! (3(c'=bd' (3c'_ba (3gfe (3faf) | c2 z2 z4 | %257
 c'/=b/d'/c'/ _b/a/g/f/ e/d/c/=B/ c/d/_e/=e/ |"_cresc." f4 F4 | E4 [eb]4 | %260
 (Pba) (Pag) (Pgf) (Pf!mf!e) |!p! (([eg]4 f2)) z2 | %262
[K:bass]!p! (3D,F,A, (3D,F,A, (3D,F,A, (3D,F,A, | (3^C,E,A, (3C,E,A, (3C,E,A, (3z (C,A,) | %264
 (3z (D,A,) (3z (D,G,) (3z (D,A,) (3z (F,A,) | (3z (E,A,) (3z (D,A,) (3z (^C,A,) (3z ([C,E,]A,) | %266
 (3z (D,A,) (3z (G,^C) (3z (F,D) (3z (F,D) | (3z (F,D) (3z (F,=B,) (3z (E,C) (3z (G,C) | %268
 (3z (A,D) (3z (A,D) (3z (F,=B,) (3z (F,B,) | [E,C]2[K:treble] A/e/a/e/ A/f/a/f/ A/g/a/g/ | %270
!p! [Aa]4 ([Gg][Ff][Ee][Dd]) | ([Ee]4 A2) A2 | d2 [Ad]2 [G^ce]2 [Fdf]2 | [Ee]4 [Aa]4- | %274
 (.[Aa]2 .[Aa]2) (([Aa]2 [_A_a]2)) | g6 (([eg]2 | .[df]2)) (([df]2 .[=Bd]2)) (d2 | c4) z4 | %278
[K:bass]!p! (3^F,A,D (3F,A,D (3F,A,D (3F,A,D | (3G,B,D (3G,B,D (3G,B,^C (3G,B,D | %280
 (3z (G,E) (3z ([G,^C]E) (3z ([=F,A,]D) (3z ([D,^G,]D) | %281
 (3z (E,^C) (3z ([E,B,]C) (3z ([F,A,]D) (3z ([G,C]E) | (3FDA, (3DA,F, (3A,F,D, (3A,F,D, | %283
 (3B,E,D, (3B,E,D, (3B,E,D, (3G,E,D, | (3A,F,D, (3A,F,D, (3A,E,^C, (3A,E,C, | %285
[K:treble] (3z ^FA (3=cAc (3^fcf (3afa |!p! c'4 (bag^f) |"^" (!turn!g (3x/x/x/ ga) .b2 .b2 | %288
 (b3 a) (gfed) | (^c"_cresc.".a).a.a .a.a.a!mp!.a |!p! a4 gfed | b6 (^g2 | a2) a2 a2 a2 | %293
 d2 z2!p! (3(D_E=E (3FG^G) | A2 z2 (D/_E/=E/F/ ^F/=G/_A/=A/) |"_decresc." B2 z2 (3(E=F^F (3G_A=A | %296
 B2) z2 (3(ef^f (3g_a=a) |!pp! (3(ba_a (3g^f=f (3ef^f (3ga=a) | [eb]2 z2 z4 | z2 .[GBe]2 z4 | %300
 z2 .[Begb]2 z4 | z8 |!p! (3A,CF (3Acf (3agf (3agf | (3bag (3fed (3cBA (3GFE | %304
 (3z (FA) (3z (DF) (3z (B,D) (3z (G,B,) | (3z FG (3AB=B (3cBc (3d_e=e |!p! f4 F4 |"_cresc." E4 b4 | %308
!mp!{/c'} (3(b.a).a{/b} (3(a.g).g{/a} (3(g.f).f{/g} (3(f.e).e |!>(! (([eg]4!>)! f)) z z2 | z8 | %311
!p! (3(c'=bd' (3c'_ba (3gfe (3faf) | c2 z2 z4 | c'/=b/d'/c'/ _b/a/g/f/ e/d/c/=B/ c/d/_e/=e/ | %314
"_cresc." f4 F4 | E4 [eb]4 | (Pba) (Pag) (Pgf) (Pf!mf!e) |!p! (3fc'a (3f'c'a (3f_e'c' (3f'e'c' | %318
 (3fd'b (3f'd'b (3fd'_a (3f'd'a | (3fc'=a (3f'c'a (3f=b_a (3f'ba | %320
 (3fc'=a (3f'c'a (3ec'_b (3e'c'b |"_cresc." f'2 .[FAcf]2 z2 .[Fc_ef]2 | z2 .[FBdf]2 z2 .[F_Adf]2 | %323
 z2 .[F=Acf]2 z2 .[F_ABf]2 | z2 .[F_Acf]2 z2 .[FAdf]2 | z2 .[EGce]2 z2 .[F=Acf]2 | %326
 z2 .[GBeg]2 z2 .[Acfa]2 |!f!!<(! (3(bc'd') (3.c'.b.a (3.g.f.e (3.d.c.B!<)! | %328
!ff!!<(! (3.A.G.F (3.E.D.C[I:staff +1] (3.B,.A,.G, (3.F,.E,.D,!<)! |[I:staff -1] x8 | x8 | %331
 z4!pp! .a2 .a2 | (3(bc'd') (3.c'.b.a (3.g.f.e (3.d.c.B | A2 z2!p! .a2 .a2 | %334
!<(! (3(bc'd') (3.c'.b.a (3.g.f.e (3.d.c.B |!mp! A2!<)! z2 z4 |!ff! [fac'f']4 [Acf]4 | %337
!p! [Bfb]2 z2!pp! [fd']2 z2 | [fa]2 z2!<(! .[cegc']2 .[cc']2!<)! |!f! [ff']4 [Ff]4 | %340
 [Ee]2 z2 .[cc']2 .[cc']2 | [ff']4 [Ff]4 | [Ee]2 z2 [cc']2 [cc']2 | %343
 (3.[ff'](c'a) (3.c'(af) (3.a(fc) (3.f(cA) | (3.c(AF) (3.A(FC) (3.F(CA,)[I:staff +1] (3.C(A,F,) | %345
!mp! (6:4:6(C,/^C,/D,/_E,/=E,/F,/ (6:4:6^F,/G,/_A,/=A,/B,/=B,/[I:staff -1] (6:4:6=C/^C/D/_E/=E/=F/ (6:4:6^F/G/_A/=A/B/=B/ | %346
 (6:4:6c/^c/d/_e/=e/f/ (6:4:6^f/g/^g/a/b/=b/ c'/^c'/d'/^d'/ Te'2) |!p! f'2 f'2- f'.e'.d'.=c' | %348
 .b.a.g.f .e.d.c.B | A2 z2 z4 | z8 | z2 (f/f'/)(f/f'/) (f/f'/)(e/e'/) (d/d'/)(c/c'/) | %352
 (B/b/)(A/a/) (G/g/)(F/f/) (E/e/)(D/d/) (C/c/)(B,/B/) | [A,A]2 z2 z4 | z8 |!pp! f4 F4 | E4 b4 | %357
"_rallentando." (b!tenuto!.a)(g!tenuto!.f) (e!tenuto!.d)(c'!tenuto!.b) | (a4 g2) z2 | z8 | %360
 [Bb]4 [Ee]4 | [Ff]2 [B,D]2 [A,C]2 [G,B,]2 |"^Allegro moderato."!f! (3z (c'.=b) (3.c'.a.f e2 z2 | %363
 (3.f(c'.=b) (3.c'.a.f e2 z2 |!ff! (3.f(c'a) (3.f(af) (3.c(fc) (3.A(cA) | %365
 .F2 .[Acf]2 .[cfa]2 .[fac']2 | [ac'f']2 z2 [Acf]2 z2 | [A,CF]2 z2 |] %368
V:4
 z2 | z8 | z8 |[K:treble] z2 [FAc]2 [FAc]2 [FAc]2 | [EBc]4- [EBc] z z2 | z2 [EBc]2 [EBc]2 [EBc]2 | %6
 (([EBc-]4 [FAc])) z z2 | z (FcB) (BA)([Ac][GB]) | ([GB][FA]) ([FA][EG]) ([EG][DF]) ([DF][CE]) | %9
[K:bass] [B,D]2 z2 [B,,D,G,]4 | [C,F,A,]4 [C,G,B,]4 | [F,,F,]4 .[C,,C,]2 .[A,,,A,,]2 | %12
 [F,,,F,,]2 z2 z4 |!p! [F,,,F,,]8 |!p! z2 (C,,2 E,,2 G,,2) | C,,8 | z2 (F,,,2 A,,,2 C,,2) | F,,8 | %18
!mf! B,,,6 B,,,2 |!p! C,,4 C,,4 |!p!!ped! [F,,,F,,]C,[F,A,]C, [F,A,]C,[F,A,]C,!ped-up! | %21
!ped! !/-![E,G,]2 C,2 !/-![G,B,]2 C,2!ped-up! |!p!!ped! F,C,[F,A,]C, [F,A,]C,[F,A,]C,!ped-up! | %23
!ped! [E,G,]C,[E,G,]C, [G,B,]C,[G,B,]C,!ped-up! | %24
 F,/F,,/E,,/F,,/ E,,/F,,/G,,/A,,/ B,,/G,,/^F,,/G,,/ F,,/G,,/A,,/B,,/ | %25
 C,/A,,/^G,,/A,,/ G,,/A,,/B,,/C,/ .D,/B,,/A,,/B,,/ .E,/C,/=B,,/C,/ | %26
 .F,/D,/^C,/D,/ .G,/E,/^D,/E,/ .A,/F,/E,/F,/ .G,/F,/E,/=D,/ | %27
 =C,2 z2 z/!ped! F,,/A,,/C,/ F,/A,/C/F/!ped-up! | %28
!ped! E2!ped-up! z2 z/!ped! F,,/A,,/C,/ F,/A,/C/F/!ped-up! | %29
!ped! E2!ped-up!!ped! z2!ped-up!!ped! [C,,E,,G,,C,]2!ped-up!!ped! z2!ped-up! | %30
!ped! [C,,E,,G,,C,]2 z2!ped-up! z4 | z2!ped! (.[C,,C,]2 .[C,,C,]2 .[C,,C,]2) | %32
 [C,,C,]6!ped-up! z2 | z2!ped! (.[C,,C,]2 .[C,,C,]2 .[C,,C,]2) | [C,,C,]6!ped-up! z2 | %35
!ped! (.[=B,,,=B,,]2 .[B,,,B,,]2!ped-up!!ped! .[B,,,B,,]2 .[B,,,B,,]2)!ped-up! | %36
!ped! [E,,E,]6!ped-up! z2 |!ped! z2 (.[C,E,G,C]2 .[C,E,G,C]2 .[C,E,G,C]2)!ped-up! | %38
!ped! [C,E,G,C]6!ped-up! z2 |!ped! z2 (.[C,E,G,^A,]2 .[C,E,G,A,]2 .[C,E,G,A,]2)!ped-up! | %40
!ped! [C,E,G,^A,]6!ped-up! z2 | %41
!ped! [=B,,E,G,=B,]2 .[B,,E,G,B,]2!ped-up!!ped! (.[B,,^D,^F,B,]2 .[B,,D,F,B,]2)!ped-up! | %42
!ped! [E,G,=B,]6!ped-up! z2 |!f! [C,,C,] z [C,G,_B,]6 | [F,A,]2 z2 [F,A,D]4 | [G,CE]4 [G,DF]4 | %46
!ped! [CE]2!ped-up! z2 z2 .C,,>.C,, |!ped! [G,,,G,,]2!ped-up! z2 z2 .G,,>.G,, | %48
!ped! [C,,C,]2!ped-up! z2 z2 .A,,>.A,, |!ped! [D,,D,]2!ped-up! z2 z2 .D,>.D, | %50
!ped! (G,,/G,/) z!ped-up!!ped! (A,,/A,/) z!ped-up!!ped! (F,,/F,/) z!ped-up!!ped! (G,,/G,/) z!ped-up! | %51
!mf!!ped! C,,/C,/C,/C/!ped-up! C,/C/=B,,/=B,/ A,,/A,/G,,/G,/ F,,/F,/E,,/E,/ | %52
!ped! D,,/D,/D,/D/!ped-up! D,/D/C,/C/ =B,,/=B,/A,,/A,/ G,,/G,/F,,/F,/ | %53
!ped! E,,/E,/E,/E/!ped-up! E,/E/D,/D/ ^C,/^C/_B,,/_B,/ A,,/A,/G,,/G,/ | %54
!ped! F,,/F,/F,/F/!ped-up! F,/F/E,/E/ D,/D/=C,/=C/ =B,,/=B,/A,,/A,/ | %55
!ped! [G,,G,][K:treble] [Acf]/z/[Acf]/z/[G=Be]/ z/!ped-up!!ped! [FAd]/z/[EGc]/z/[DFB]/z/[CEA]/ z/!ped-up! | %56
[K:bass]!ped! [=B,DG]/z/[A,CF]/z/[G,B,E]/z/[F,A,D]/ z/!ped-up!!ped! [E,G,C]/z/[D,F,B,]/z/[C,E,A,]/z/[=B,,D,G,]/!ped-up! z/ | %57
!ped! (([A,,C,_E,^F,]4!ped-up!!ped! [^G,,=B,,D,=F,]4))!ped-up! | %58
!ped! A,2!ped-up!!ped! [^F,A,]2!ped-up!!ped! G,2!ped-up!!ped! G,2!ped-up! | %59
!ped! G,[K:treble] [GBe]/z/[GBe]/z/[=FAd]/!ped-up! z/!ped! [EGc]/z/[DF=B]/z/[CEA]/z/[=B,DG]/ z/!ped-up! | %60
[K:bass]!ped! [A,CF]/z/[G,=B,E]/z/[F,A,D]/z/[E,G,C]/ z/!ped-up!!ped! [D,F,B,]/z/[C,E,A,]/z/[=B,,D,G,]/z/[A,,C,_E,^F,]/!ped-up! z/ | %61
!ped! [^G,=B,]4!ped-up!!ped! A,4!ped-up! | %62
!ped! [^F,A,]4!ped-up!!ped! =G,2!ped-up!!ped! G,2!ped-up! | [C,,C,]2 z2 z4 | [G,,,G,,]2 z2 z4 | %65
!p! C,/E,/G,/E,/ C,/E,/G,/E,/ C,/E,/G,/E,/ C,/E,/G,/E,/ | %66
 G,,/D,/F,/D,/ G,,/D,/F,/D,/ G,,/D,/F,/D,/ G,,/D,/F,/D,/ | [C,E,]2 z2 z4 | G,,2 z2 z4 | %69
!p! C,/E,/G,/E,/ C,/E,/G,/E,/ C,/E,/G,/E,/ C,/E,/G,/E,/ | %70
 G,,/D,/F,/D,/ G,,/D,/F,/D,/ G,,/D,/F,/D,/ G,,/D,/F,/D,/ | [C,E,]2 z2 [G,DF]4 | %72
 [CE]2 z2 [G,,D,F,]4 | [C,E,]2 [G,DF]>[G,DF] [CE]2 [G,,D,F,]>[G,,D,F,] | [C,E,]2 z2 [C,,C,]2 z2 | %75
 [E,G,]2 z2 z2 :| G,,>G,, | C,4 .G,2 ._E,2 | .C,2 z2 z4 | z2!ped! [_E,G,]2 [E,G,]2 [E,G,]2 | %80
 [_E,G,]6!ped-up! z2 | z2!ped! [_E,G,]2 [E,G,]2 [E,G,]2 | [_E,G,]6!ped-up! z2 | %83
!ped! [_A,,,_A,,]8!ped-up! | .[_A,,_A,]2 .[_E,,_E,]2 .[C,,C,]2 .[_A,,,A,,]2 | %85
!ped! [_G,,,_G,,]8!ped-up! | .[_G,,_G,]2 .[_E,,_E,]2 .[C,,C,]2 .[_A,,,_A,,]2 | %87
!ped! [F,,,F,,]8!ped-up! | .[F,,F,]2 .[_E,,_E,]2 .[_D,,_D,]2 .[C,,C,]2 |!ped! [B,,,B,,]8!ped-up! | %90
 .[B,,B,]2 .[F,,F,]2 .[_D,,_D,]2 .[B,,,B,,]2 |!ped! [_A,,,_A,,]8!ped-up! | %92
 .[_A,,_A,]2 .[F,,F,]2 .[=D,,=D,]2 .[_A,,,_A,,]2 |!ped! [G,,,G,,]8!ped-up! | %94
!ped! [_G,,,_G,,]8!ped-up! | %95
 [F,,,F,,]!p! .[F,A,C].[F,A,C].[F,A,C] .[F,A,C].[F,A,C].[F,A,C].[F,A,C] | %96
 .[F,B,_D].[F,B,D].[F,B,D].[F,B,D] .[F,B,D=E].[F,B,DE].[F,B,DE].[F,B,DE] | %97
 [F,A,CF] z z2 [F,,F,]2 z2 | [F,,F,]2 z2 [F,,F,]2 z2 | %99
 [F,,F,] .[E,G,C].[E,G,C].[E,G,C] .[E,G,C].[E,G,C].[E,G,C].[E,G,C] | %100
 .[F,_A,C].[F,A,C].[F,A,C].[F,A,C] .[_D,F,=B,].[D,F,B,].[D,F,B,].[D,F,B,] | [C,C]2 z2 [C,,C,]2 z2 | %102
 z .[F,_A,].[F,A,].[F,A,] z .[F,A,].[F,A,].[F,A,] | %103
[K:treble]!pp!!ped! C/E/G/E/ C/E/G/E/!ped-up!!ped! C/F/_A/F/ C/F/A/F/!ped-up! | %104
!ped! C/E/G/E/ C/E/G/E/!ped-up!!ped! C/F/_A/F/ C/F/A/F/!ped-up! | %105
!ped! C/E/G/E/!ped-up!!ped! C/F/_A/F/!ped-up!!ped! C/E/G/E/!ped-up!!ped! C/F/A/F/!ped-up! | %106
!ped! [CEG] z!ped-up! z2 z4 | z8 |[K:bass] z/ C,/E,/G,/ C/=B,/C/B,/ C/B,/A,/G,/ F,/E,/D,/C,/ | %109
 =B,,/D,/F,/=B,/ D/^C/D/C/ D/=C/B,/A,/ G,/F,/E,/D,/ | E,/E/^D/E/ D/E/E,/E/ F,/F/E/F/ E/F/F,/F/ | %111
 G,/G/^F/G/ G,/G/^F,/F/ G,/G/F,/F/ G,/G/F,/F/ | %112
 G,/G/=F,/=F/ E,/E/D,/D/ C,/C/B,,/B,/ A,,/A,/G,,/G,/ |!ff! [F,,F,]4 .[C,,C,]2 .[A,,,A,,]2 | %114
 [F,,,F,,]2 z2 z4 |[K:treble] z2!p! [FAc]2 [FAc]2 [FAc]2 | [EBc]4- [EBc] z z2 | %117
 z2 [EBc]2 [EBc]2 [EBc]2 | (([EBc-]4 [FAc])) z z2 |[K:bass]!p! [F,,,F,,]8 | %120
!p! z2 (C,,2 E,,2 G,,2) | C,,8 | z2 (F,,,2 F,,2 _E,,2) |!mp! D,,4 _E,,4 |!p! F,,4 F,,,4 | %125
!p!!ped! [B,,,B,,] F,[B,D]F, [B,D]F,[B,D]F,!ped-up! | %126
!ped! [A,C]F,[A,C]F,!ped-up!!ped! [C_E]F,[CE]F,!ped-up! |!ped! B,F,[B,D]F, [B,D]F,[B,D]F,!ped-up! | %128
!ped! [A,C]F,[A,C]F,!ped-up!!ped! [C_E]F,[CE]F,!ped-up! | %129
!ped! B,2!ped-up! z2!ped! [G,,G,]2!ped-up! z2 |!ped! [A,,A,]2!ped-up! z2!ped! [D,,D,]2!ped-up! z2 | %131
!ped! [C,,C,]2!ped-up! z2 z/!ped! F,,/A,,/C,/ F,/A,/C/F/!ped-up! | %132
!ped! E2!ped-up! z2 z/!ped! F,,/A,,/C,/ F,/A,/C/F/!ped-up! | %133
!ped! E2!ped-up! z2!ped! [C,,E,,G,,C,]2!ped-up! z2 |!ped! [C,,E,,G,,C,]2 z2!ped-up! z4 | %135
 z2!ped! (.[F,,F,]2 .[F,,F,]2 .[F,,F,]2) | [F,,F,]6!ped-up! z2 | %137
 z2!ped! (.[F,,F,]2 .[F,,F,]2 .[F,,F,]2) | [F,,F,]6!ped-up! z2 | %139
!ped! (.[E,,E,]2 .[E,,E,]2)!ped-up!!ped! (.[E,,E,]2 .[E,,E,]2)!ped-up! |!ped! [A,,A,]6!ped-up! z2 | %141
!ped! z2 (.[F,A,CF]2 .[F,A,CF]2 .[F,A,CF]2)!ped-up! |!ped! [F,A,CF]6!ped-up! z2 | %143
!ped! z2 (.[F,A,C^D]2 .[F,A,CD]2 .[F,A,CD]2)!ped-up! |!ped! [F,A,C^D]6!ped-up! z2 | %145
!ped! [E,A,CE]2 .[E,A,CE]2!ped-up!!ped! (.[E,^G,=B,E]2 .[E,G,B,E]2)!ped-up! | %146
!ped! [A,CE]6!ped-up! z2 |!f! [F,,F,] z [F,C_E]6 | [B,D]2 z2[K:treble] [B,DG]4 | [CFA]4 [CGB]4 | %150
!ped! [FA]2!ped-up! z2 z2[K:bass] .F,,>.F,, |!ped! [C,,C,]2!ped-up! z2 z2 .C,>.C, | %152
!ped! [F,,F,]2!ped-up! z2 z2 .D,>.D, |!ped! [G,,G,]2!ped-up! z2 z2 .G,,>.G,, | %154
!ped! (C,,/C,/) z!ped-up!!ped! (D,,/D,/) z!ped-up!!ped! (B,,,/B,,/) z!ped-up!!ped! (C,,/C,/) z!ped-up! | %155
!mf!!ped! F,,,/F,,/F,,/F,/!ped-up! F,,/F,/E,,/E,/ D,,/D,/C,,/C,/ B,,,/B,,/A,,,/A,,/ | %156
!ped! G,,,/G,,/G,,/G,/!ped-up! G,,/G,/F,,/F,/ E,,/E,/D,,/D,/ C,,/C,/B,,,/B,,/ | %157
!ped! A,,,/A,,/A,,/A,/!ped-up! A,,/A,/G,,/G,/ ^F,,/^F,/_E,,/_E,/ D,,/D,/C,,/C,/ | %158
!ped! B,,,/B,,/B,,/B,/!ped-up! B,,/B,/A,,/A,/ G,,/G,/=F,,/=F,/ =E,,/=E,/D,,/D,/ | %159
!ped! [C,,C,][K:treble] [DFB]/z/[DFB]/z/[CEA]/ z/!ped-up!!ped! [B,DG]/z/[A,CF]/z/[K:bass][G,B,E]/z/[F,A,D]/ z/!ped-up! | %160
[K:bass]!ped! [E,G,C]/z/[D,F,B,]/z/[C,E,A,]/z/[B,,D,G,]/ z/!ped-up!!ped! x2 x/ [F,A,]/x/!ped-up![E,G,]/ | %161
!pp!!ped! [F,_A,]4!ped-up!!ped! [F,A,]4!ped-up! |!ped! [F,G,]4!ped-up!!ped! [E,G,]4!ped-up! | %163
!ped! C[K:treble] [Acf]/z/[Acf]/z/[GBe]/!ped-up! z/!ped! [FAd]/z/[EGc]/z/[DFB]/z/[CEA]/ z/!ped-up! | %164
!ped! [B,DG]/z/[A,CF]/z/[K:bass][G,B,E]/z/[F,A,D]/ z/!ped-up!!ped! [E,G,C]/z/[D,F,=B,]/z/[_D,F,_B,]/z/[C,F,A,]/!ped-up! z/ | %165
!ped! [=B,,=D,F,_A,]4!ped-up!!ped! [_D,,F,,_A,,B,,]4!ped-up! | %166
!ped! [C,,F,,G,,C,]4!ped-up!!ped! [C,,E,,G,,C,]4!ped-up! | %167
!p! F,,/=A,,/C,/A,,/ F,,/A,,/C,/A,,/ F,,/A,,/C,/A,,/ F,,/A,,/C,/A,,/ | %168
 E,,/B,,/C,/B,,/ E,,/B,,/C,/B,,/ G,,/B,,/C,/B,,/ G,,/B,,/C,/B,,/ | %169
!p! F,,/=A,,/C,/A,,/ F,,/A,,/C,/A,,/ F,,/A,,/C,/A,,/ F,,/A,,/C,/A,,/ | %170
 C,,/G,,/B,,/G,,/ C,,/G,,/B,,/G,,/ C,,/G,,/B,,/G,,/ C,,/G,,/B,,/G,,/ | %171
!p! F,,/=A,,/C,/A,,/ F,,/A,,/C,/A,,/ F,,/A,,/C,/A,,/ F,,/A,,/C,/A,,/ | %172
 E,,/B,,/C,/B,,/ E,,/B,,/C,/B,,/ G,,/B,,/C,/B,,/ G,,/B,,/C,/B,,/ | %173
 F,,/A,,/C,/A,,/ F,,/A,,/C,/A,,/ F,,/A,,/C,/A,,/ F,,/A,,/C,/A,,/ | %174
 C,,/G,,/B,,/G,,/ C,,/G,,/B,,/G,,/ C,,/G,,/B,,/G,,/ C,,/G,,/B,,/G,,/ | [F,,A,,]2 z2 [C,G,B,]4 | %176
 [F,A,]2 z2[K:treble] [CGB]4 | [FA]2 z2[K:bass] [C,G,B,]4 | %178
 !tenuto!.[F,A,]2 !tenuto!.[C,G,B,]>.[C,G,B,] !tenuto!.[F,A,]2 !tenuto!.[C,G,B,]>.[C,G,B,] | %179
 [F,A,]2 z2 [F,,A,,C,F,]2 z2 | [F,,A,,C,F,]2 z2 [F,,,F,,]2 z2 | [F,,,F,,]2 z2 z2 |] %182
[K:Ab][M:2/4] z | !tenuto!..F,, z !tenuto!..F,, z | .[C,,C,].[C,,C,] z2 | %185
[K:treble] (FA/)z/4.A/4 (FA/)z/4.A/4 | .[CG].[C=E] z2 |[K:bass] .F,.F,/>.F,/ ._E,.E,/>.E,/ | %188
 .=D,.E, z .[A,E]/>.[A,E]/ | .[B,G].[B,G]/>.[B,G]/ .[B,F].[B,F]/>.[B,F]/ | [E,E] z z2 | %191
 [E,,E,] z [E,,E,] z | [D,,D,]4- | [D,,D,][D,,D,][D,,D,][D,,D,] | %194
 [C,,C,] z z[K:treble] [=B,F]/>[B,F]/ | [C=E] z z[K:bass] [=B,=D]/>[B,D]/ | %196
 [C=E] z z [F,A,=B,=D]/>[F,A,B,D]/ | %197
 [=E,G,C] [F,A,=B,=D]/>[F,A,B,D]/ [E,G,C] [F,A,B,D]/>[F,A,B,D]/ | %198
!ped! [=E,G,C]2!ped-up![K:treble]!ped! ([G,C=E]!ped-up!!ped![CEG])!ped-up! | %199
!ped! !fermata![CGB]2 x4 x x4!ped-up![K:bass]"_attacca subito\nil Rondo.\n"!ped! !fermata![C,G,]2!ped-up! || %200
[K:F][M:2/2] z4 | (([F,A,]4 [A,C]4)) | [G,B,]4 [^C,E,]4 | [D,F,]2[K:treble] [DF]2 [B,D]2 [G,G]2 | %204
 ([C-F]4 [CE]2) z2 |[K:bass] F,,8 | [C,,C,]6 ^C,,2 | .[D,,D,]2 .B,,2 .=C,2 .=C,,2 | %208
 .F,,2 .C,,2 .F,,2 z2 |!p!!ped! (3C,E,G, (3CG,E,!ped-up!!ped! (3C,E,G, (3CG,E,!ped-up! | %210
!ped! (3C,G,B, (3C,G,B,!ped-up!!ped! (3C,G,B, (3C,F,A,!ped-up! | %211
!ped! (3C,E,G, (3CG,E,!ped-up!!ped! (3C,F,A, (3CA,F,!ped-up! | %212
!ped!"_cresc." (3C,G,B, (3C,G,B,!ped-up!!ped! (3C,G,B, (3C,E,!p!G,!ped-up! | [F,,F,]2 z2 z4 | %214
 [C,,C,]4 [^C,,^C,]4 | [D,,D,]2 B,,2 =C,2 =C,,2 | F,,2 C,,2 F,,2 z2 |!p!!ped! [F,,,F,,]8!ped-up! | %218
!ped! [B,,,B,,]8!ped-up! | %219
!ped! ([A,,,A,,]4!ped-up!!ped! [G,,,G,,]2!ped-up!!ped! [F,,,F,,]2)!ped-up! | %220
!p!!ped! z2 (([F,A,]2!ped-up!!ped! [E,G,]2)) z2!ped-up! | %221
!ped! (3F,A,C (3FCA,!ped-up!!ped! (3F,A,C!ped-up!!ped! (3E,G,^C!ped-up! | %222
!ped! (3F,A,D!ped-up!!ped! (3E,G,^C!ped-up!!ped! (3F,A,D!ped-up!!ped! (3E,G,C!ped-up! | %223
!ped! (3D,F,A,!ped-up!!ped! (3E,G,^C!ped-up!!ped! (3F,A,D!ped-up!!ped! (3^F,A,_E!ped-up! | %224
!ped! (3G,=B,D (3GDB,!ped-up!!ped! (3G,B,D (3=FDB,!ped-up! | %225
!<(!!ped! (3G,CE (3G,C!<)!E!ped-up!!ped!!>(! (3G,C_E (3G,CE!ped-up!!>)! | %226
!p!!ped! (3G,,=B,,D, (3G,D,B,,!ped-up!!ped! (3G,,B,,D, (3G,D,B,,!ped-up! | %227
!ped!!<(! (3G,,C,E, (3G,,C,E,!ped-up!!<)!!mp!!ped!!>(! (3G,,C,_E, (3G,,C,E,!ped-up!!>)! | %228
!p! [G,,=B,,D,]2 z2 z2!f! D,>D, | G,2 z2 z2 D,,>D,, | %230
 (3.G,,.D,.C, (3.=B,,.A,,.=G,, (3.^F,,.=E,,.D,, (3.C,,.=B,,,.A,,, | %231
 G,,,!p!!ped! (G,,[=B,,D,]G,,!ped-up!!ped! [C,E,]G,,!ped-up!!ped![D,F,]G,,)!ped-up! | %232
!ped! ([C,E,]G,,[E,G,]G,,!ped-up!!ped! [C,E,]G,,[E,G,]G,,)!ped-up! | %233
!p!!ped! ([D,F,]G,,[=B,,D,]G,,!ped-up!!ped! [D,F,]G,,[B,,D,]G,,)!ped-up! | %234
!ped! ([C,E,]G,,[E,G,]G,,!ped-up!!ped! [C,E,]G,,[E,G,]G,,)!ped-up! | %235
!p!!ped! ([D,F,]G,,[=B,,D,]G,,!ped-up!!ped! [D,F,]G,,[B,,D,]G,,)!ped-up! | [C,E,]2 z2 z4 | %237
 [F,,F,]2 z2 z2 [F,CD]>.[F,CD] | [G,CE]2 z2 [G,=B,D]2 z2 | C,2 z2 z4 | [F,,C,F,]8 | %241
 [G,,C,E,]2 z2 [G,,=B,,D,F,]2 z2 |!ped! [C,,C,]8!ped-up! | %243
!ped! (3C,E,G, (3CG,E, (3C,E,G, (3CG,E,!ped-up! |!ped! (3C,F,A, (3CA,F, (3C,F,A, (3CA,F,!ped-up! | %245
 [G,,,G,,]8 |!ped! [F,,,F,,]4!ped-up!!ped! [F,A,]4!ped-up! | %247
!ped! [G,B,]4!ped-up!!ped! [^C,E,]4!ped-up! | [D,F,]2[K:treble] [DF]2 [B,D]2 [G,G]2 | %249
 ([C-F]4 [CE]2) z2 |[K:bass] F,,8 | [C,,C,]6 ^C,,2 | .[D,,D,]2 .B,,2 .=C,2 .=C,,2 | %253
 .F,,2 .C,,2 .F,,2 z2 |!p!!ped! (3C,E,G, (3CG,E,!ped-up!!ped! (3C,E,G, (3CG,E,!ped-up! | %255
!ped! (3C,G,B, (3C,G,B,!ped-up!!ped! (3C,G,B, (3C,F,A,!ped-up! | %256
!ped! (3C,E,G, (3CG,E,!ped-up!!ped! (3C,F,A, (3CA,F,!ped-up! |!ped! [C,G,B,]2!ped-up! z2 z4 | %258
 F,,,/F,,/G,,,/G,,/ A,,,/A,,/B,,,/B,,/ C,,/C,/D,,/D,/ E,,/E,/F,,/F,/ | %259
 G,,/G,/F,,/F,/ E,,/E,/D,,/D,/ C,,/C,/B,,,/B,,/ A,,,/A,,/G,,,/G,,/ | %260
 [F,,,F,,]2 [B,,D,G,]2 [C,F,A,]2 [C,G,B,]2 |!ped! (([F,B,C-]4!ped-up!!ped! [F,A,C]2))!ped-up! z2 | %262
!ped! D,,8!ped-up! |!ped! (A,,6!ped-up! G,,2 | F,,2 E,,2 F,,2 D,,2 | ^C,,2 =B,,,2 A,,,2 G,,2 | %266
 F,,2 E,,2 D,,2 =C,2 | =B,,2 G,,2 C,2 E,,2 | F,,2 D,,2 G,,2 G,,,2 | %269
 C,,2) ([^C,,^C,]2 [D,,D,]2 [E,,E,]2) | %270
!p!!ped! (3D,,F,,A,, (3D,F,D,!ped-up!!ped! (3D,,F,,A,, (3D,F,D,!ped-up! | %271
!p!!ped! (3A,,^C,E, (3A,^CD!ped-up! (3EDC (3B,A,G, | (3F,A,G, (3F,A,F, (3E,A,E, (3D,A,D, | %273
 (3^C,E,A, (3=B,,D,A, (3A,,^C,E, (3G,,C,E, | (3F,,A,,D, (3E,,G,,^C, (3D,,=F,,D, (3=C,,F,,=C, | %275
 (3=B,,,=B,,A,, (3G,,A,,B,, (3C,,C,B,, (3C,D,E, | (3F,,F,E, (3D,E,F, (3G,,G,^F, (3G,A,=B, | %277
 (3C,C=B, (3CG,E, C,2 z2 |!p!!ped! ([D,,D,]6!ped-up!!ped! [C,,C,]2!ped-up! | %279
!ped! [B,,,B,,]2!ped-up!!ped! G,,2!ped-up!!ped! F,,2!ped-up!!ped! D,,2!ped-up! | %280
 ^C,,2 A,,,2 D,,2 B,,,2 | A,,,2 G,,2 F,,2 E,,2) |!ped! D,,8!ped-up! | %283
!ped! [G,,,G,,]6!ped-up!!ped! [B,,,B,,]2!ped-up! | %284
!ped! [A,,,A,,]2 [A,,,A,,]2!ped-up!!ped! [A,,,A,,]2 [A,,,A,,]2!ped-up! | %285
!ped! [D,,D,]2 z2!ped-up! z4 | %286
!p!!ped! (3D,^F,A,[I:staff -1] (3D^FA!ped-up!!ped! (3DFA (3CDA!ped-up! | %287
!ped![I:staff +1] (3B,[I:staff -1]DG[I:staff +1] (3G,B,D!ped-up! (3E,G,^C (3D,G,B, | %288
!ped! (3^C,E,A, (3C,E,A,!ped-up!!ped! (3D,F,A,!ped-up!!ped! (3B,,D,G,!ped-up! | %289
!ped! (3A,,^C,E,!ped-up!!ped!"_cresc." (3G,,A,,E,!ped-up!!ped! (3F,,A,,D,!ped-up!!ped! (3E,,G,,!p!C,!ped-up! | %290
!p!!ped! (3D,,F,,A,, (3D,F,D,!ped-up!!ped! (3D,,F,,A,, (3D,F,D,!ped-up! | %291
!ped! (3G,,D,E, (3G,,D,E, (3G,,D,E,!ped-up!!ped! (3B,,D,E,!ped-up! | %292
!ped! (3A,,D,F, (3A,F,D,!ped-up!!ped! (3A,,^C,E, (3A,E,C,!ped-up! | [D,,D,]2 z2 z4 | %294
 z2!ped! [D,F,A,]2!ped-up! z4 | z2!ped! [=D,G,B,]2!ped-up! z4 | z2!ped! [C,G,B,]2!ped-up! z4 | %297
 z2[K:treble]!ped! [CGB]2!ped-up! z2!ped! [CGB]2!ped-up! | z2!ped! .[CGB]2!ped-up! z4 | %299
[K:bass] z2!ped! .[C,C]2!ped-up! z4 | z2!ped! .[C,,C,]2!ped-up! z4 | z8 |!p!!ped! F,,8!ped-up! | %303
!ped! [C,,C,]8!ped-up! | [F,,F,]2 [D,,D,]2 [B,,,B,,]2 [G,,,G,,]2 | C,2[K:treble] (F2 E2) z2 | %306
[K:bass] (3.F,,.G,,.A,, (3.B,,.C,.D, (3.E,.F,.G, (3.A,.G,.F, | %307
 (3.B,.A,.G, (3.F,.E,.D, (3.C,.B,,.A,, (3.G,,.F,,.E,, | (3F,,C,F, (3B,,D,G, (3C,F,A, (3C,G,B, | %309
 (3z B,A, (3B,CB, A, z z2 |!p!!ped! (3C,E,G, (3CG,E,!ped-up!!ped! (3C,E,G, (3CG,E,!ped-up! | %311
!ped! (3C,G,B, (3C,G,B,!ped-up!!ped! (3C,G,B, (3C,F,A,!ped-up! | %312
!ped! (3C,E,G, (3CG,E,!ped-up!!ped! (3C,F,A, (3CA,F,!ped-up! |!ped! [C,G,B,]2!ped-up! z2 z4 | %314
 F,,,/F,,/G,,,/G,,/ A,,,/A,,/B,,,/B,,/ C,,/C,/D,,/D,/ E,,/E,/F,,/F,/ | %315
 G,,/G,/F,,/F,/ E,,/E,/D,,/D,/ C,,/C,/B,,,/B,,/ A,,,/A,,/G,,,/G,,/ | %316
 [F,,,F,,]2 [B,,D,G,]2 [C,F,A,]2 [C,G,B,]2 | [F,A,]2 z2 (([A,,,A,,]4 | %318
 [B,,,B,,]2)) z2 (([=B,,,=B,,]4 | [C,,C,]2)) z2 (([_D,,_D,]4 | [C,,C,]2)) z2 [C,,C,]2 z2 | %321
 F,,,/F,,/E,,/F,,/ E,,/F,,/E,,/F,,/ A,,,/A,,/^G,,/A,,/ G,,/A,,/G,,/A,,/ | %322
 B,,,/B,,/A,,/B,,/ A,,/B,,/A,,/B,,/ =B,,,/=B,,/^A,,/B,,/ A,,/B,,/A,,/B,,/ | %323
 C,,/C,/=B,,/C,/ B,,/C,/B,,/C,/ _D,,/_D,/C,/D,/ C,/D,/C,/D,/ | %324
 C,,/C,/=B,,/C,/ B,,/C,/B,,/C,/ =B,,,/B,,/^A,,/B,,/ A,,/B,,/A,,/B,,/ | %325
 _B,,,/_B,,/=A,,/B,,/ A,,/B,,/A,,/B,,/ A,,,/A,,/^G,,/A,,/ G,,/A,,/G,,/A,,/ | %326
 =G,,,/=G,,/^F,,/G,,/ F,,/G,,/F,,/G,,/ F,,,/=F,,/E,,/F,,/ E,,/F,,/E,,/F,,/ | E,,2 z2 z4 | %328
 z2 (3.E,.D,.C, (3.B,,.A,,.G,, (3.F,,.E,,.D,, | C,8- | !fermata!C,4 z4 |[K:treble] z4 .F2 .F2 | %332
 (3(GAB) (3.A.G.F[K:bass] (3.E.D.C (3.B,.A,.G, | F,2 z2[K:treble] .F2 .F2 | %334
 (3(GAB) (3.A.G.F[K:bass] (3.E.D.C (3.B,.A,.G, | F,2 z2 z4 | %336
!ped! [_E,,_E,]4!ped-up!!ped! [E,_E]4!ped-up! | [D,D]2 z2 [B,,B,]2 z2 | [C,C]2 z2 [B,,B,]2 z2 | %339
 [A,,A,]2 z2 z4 | (3(B,,C,D,) (3.C,.B,,.A,, (3.G,,.F,,.E,, (3.D,,.C,,.B,,, | A,,,2 z2 z4 | %342
 (3(B,,C,D,) (3.C,.B,,.A,, (3.G,,.F,,.E,, (3.D,,.C,,.B,,, | A,,,2 z2 z2 (3.F(CA,) | %344
 (3.C(A,F,) (3.A,(F,C,) (3.F,(C,A,,) (3.C,(A,,F,,) |!ped! C,,2 z2 z4 | %346
 C,,/C,/C,,/C,/ C,,/C,/C,,/C,/ C,,/C,/C,,/C,/ C,,/C,/C,,/C,/!ped-up! | %347
!p!!ped! (3(F,,A,,C, (3F,C,A,,!ped-up!!ped! (3F,,A,,C, (3F,C,A,,)!ped-up! | %348
!ped! (3(F,,G,,B,, (3E,B,,G,,!ped-up!!ped! (3F,,G,,B,, (3E,B,,G,,)!ped-up! | %349
!ped! (3(F,,A,,C, (3F,C,A,,!ped-up!!ped! (3F,,A,,C, (3F,C,A,,)!ped-up! | %350
!ped! (3(F,,G,,B,, (3E,B,,G,,!ped-up!!ped! (3F,,G,,B,, (3E,B,,G,,)!ped-up! | %351
!ped! (3(F,,A,,C, (3F,C,A,,!ped-up!!ped! (3F,,A,,C, (3F,C,A,,)!ped-up! | %352
!ped! (3(F,,G,,B,, (3E,B,,G,,!ped-up!!ped! (3F,,G,,B,, (3E,B,,G,,)!ped-up! | %353
!ped! (3(F,,A,,C, (3F,C,A,,!ped-up!!ped! (3F,,A,,C, (3F,C,A,,)!ped-up! | %354
!ped! (3(F,,G,,B,, (3E,B,,G,,!ped-up!!ped! (3F,,G,,B,, (3E,B,,G,,)!ped-up! | %355
 [F,,A,,C,F,]4 [F,A,]4 | [G,B,]4 [^C,E,]4 | [D,F,]2[K:treble] [DF]2 [B,D]2 [G,G]2 | %358
 ([C-F]4 [CE]2) z2 | z8 |[K:bass] [C,,C,]4 [^C,,^C,]4 | [D,,D,]2 B,,2 =C,2 =C,,2 | %362
 [F,,F,]2 z2 [C,C]2 z2 | [F,,F,]2 z2 [C,C]2 z2 | [F,,F,]2 z2 z4 | z2 .F,2 .C,2 .A,,2 | %366
 F,,2 z2 [F,,,F,,]2 z2 | [F,,,F,,]2 z2 |] %368
V:5
 x2 | x8 | x8 | x8 | x8 | x8 | x8 | x8 | x8 | (3x/4x/4x/4xx/ x2 x4 | x8 | x8 |[K:bass] x8 | x8 | %14
 x8 | x8 | x8 | x8 | x8 | x8 |[K:treble] x8 | x8 | x8 | x8 | x8 | x8 | x8 | x8 | x8 | x8 | x8 | %31
 x2[K:bass] x6 | x8 | x8 | x8 | x8 | G,6[K:treble] x/ x/4x/4x/4x/4 x/ | x8 | %38
 x6 x/ x/4x/4x/4x/4 x/ | x8 | x6 x/ x/4x/4x/4x/4 x/ | x8 | x8 | x8 | x8 | x8 | x8 | x8 | x8 | x8 | %50
 x8 | x8 | x8 | x8 | x8 | x8 | x8 | x8 | x8 | x8 | x8 | x8 | x8 |[K:bass] x8 | x8 | %65
 x11/2[K:treble] x5/2 | x8 | x[K:bass] x7 | x8 | x4[K:treble] x4 | x8 | x8 | x8 | x8 | x8 | x6 :| %76
 x2 | x8 | x8 | x8 | x8 | x8 | x8 | x8 | x8 | x8 | x8 | x8 | x8 | x8 | x8 | x8 | x8 | x8 | x8 | %95
 x8 | x8 | x8 | x8 | x8 | x8 | x8 | x8 | x8 | x8 | x8 | x8 | x8 | x8 | x8 | x8 | x8 | x8 | x8 | %114
 x8 | x8 | x8 | x8 | x8 |[K:bass] x8 | x8 | x8 | x8 | x8 | x8 |[K:treble] x8 | x8 | x8 | x8 | x8 | %130
 x8 | x8 | x8 | x8 | x8 | x8 | x8 | x8 | x8 | x8 | C6[K:treble] x/ x/4x/4x/4x/4 x/ | x8 | %142
 x6 x/ x/4x/4x/4x/4 x/ | x8 | x6 x/ x/4x/4x/4x/4 x/ | x8 | x8 | x8 | x8 | x8 | x8 | x8 | x8 | x8 | %154
 x8 | x8 | x8 | x8 | x8 | x8 | x8 | x8 | x8 | x8 | x8 | x8 | x8 | x8 | x8 | x11/2[K:treble] x5/2 | %170
 x8 | x8 | x8 | x8 | x8 | x8 | x8 | x8 | x8 | x8 | x8 | x6 |][K:Ab][M:2/4] x | x4 | x4 | %185
 =B3/2z/4.B/4 B3/2z/4.B/4 | x4 | x4 | x4 | x4 | x4 |[K:bass] x4 | x4 | x4 | x3[K:treble] x | x4 | %196
 x4 | x4 | x4 | x13 ||[K:F][M:2/2] x4 | x8 | x8 | x8 | x8 | x8 | x8 | x8 | x8 | x8 | x8 | x8 | x8 | %213
 x8 | x8 | x8 | x8 |[K:bass] x8 | x8 | x8 |[K:treble] x8 | x8 | x8 | x8 | x8 | x8 | x8 | x8 | x8 | %229
 x8 | x8 | x8 | x8 | x8 | x8 | x8 | x8 | x8 | x8 | x8 | x8 | x8 | x8 | x8 | x8 | x8 | x8 | x8 | %248
 x8 | x8 | x8 | x8 | x8 | x8 | x8 | x8 | x8 | x8 | x8 | x8 | x8 | x8 |[K:bass] x8 | x8 | x8 | x8 | %266
 x8 | x8 | x8 | x2[K:treble] x6 | x8 | x8 | x8 | x8 | x8 | G6 (G2 | .A2) (A2 .F2) (G2 | E4) x4 | %278
[K:bass] x8 | x8 | x8 | x8 | x8 | x8 | x8 |[K:treble] x8 | x8 | x8 | x8 | x8 | x8 | x8 | x8 | x8 | %294
 x8 | x8 | x8 | x8 | x8 | x8 | x8 | x8 | x8 | x8 | x8 | x8 | x8 | x8 | x8 | x8 | x8 | x8 | x8 | %313
 x8 | x8 | x8 | x8 | x8 | x8 | x8 | x8 | x8 | x8 | x8 | x8 | x8 | x8 | x8 | x8 | x8 | x8 | x8 | %332
 x8 | x8 | x8 | x8 | x8 | x8 | x8 | x8 | x8 | x8 | x8 | x8 | x8 | x8 | %346
 x6 (21:8:9(1:1:7x/x/x/x/x/x/x/ =d'/e'/ | x8 | x8 | x8 | x8 | x8 | x8 | x8 | x8 | x8 | x8 | x8 | %358
 x8 | x8 | x8 | x8 | x8 | x8 | x8 | x8 | x8 | x4 |] %368
V:6
 x2 | x8 | x8 |[K:treble] x8 | x8 | x8 | x8 | x8 | x8 |[K:bass] x8 | x8 | x8 | x8 | x8 | x8 | x8 | %16
 x8 | x8 | x8 | x8 | x8 | x8 | x8 | x8 | x8 | x8 | x8 | x8 | x8 | x8 | x8 | x8 | x8 | x8 | x8 | %35
 x8 | x8 | x8 | x8 | x8 | x8 | x8 | x8 | x8 | x8 | x8 | x8 | x8 | x8 | x8 | x8 | x8 | x8 | x8 | %54
 x8 | x[K:treble] x7 |[K:bass] x8 | x8 | [A,,C,E,]2 [^F,,A,,C,_E,]2 [G,,C,D,]2 [G,,=B,,D,]2 | %59
 [C,,C,][K:treble] x x2 x4 |[K:bass] x8 | [^G,,=B,,D,=F,]4 [A,,C,=E,]4 | %62
 [^F,,A,,C,_E,]4 [=G,,C,D,]2 [G,,=B,,D,]2 | x8 | x8 | x8 | x8 | x8 | x8 | x8 | x8 | x8 | x8 | x8 | %74
 x8 | [C,,C,]2 x2 x2 :| x2 | x4 .G,,2 ._E,,2 | .C,,2 x2 x4 | x2 (.[C,,C,]2 .[C,,C,]2 .[C,,C,]2) | %80
 [C,,C,]6 x2 | x2 (.[_B,,,_B,,]2 .[B,,,B,,]2 .[B,,,B,,]2) | [B,,,B,,]6 x2 | x8 | x8 | x8 | x8 | %87
 x8 | x8 | x8 | x8 | x8 | x8 | x8 | x8 | x8 | x8 | x8 | x8 | x8 | x8 | x8 | %102
 [C,,C,]2 z2 [C,,C,]2 z2 |[K:treble] x8 | x8 | x8 | x8 | x8 |[K:bass] x8 | x8 | x8 | x8 | x8 | x8 | %114
 x8 |[K:treble] x8 | x8 | x8 | x8 |[K:bass] x8 | x8 | x8 | x8 | x8 | x8 | x8 | x8 | x8 | x8 | x8 | %130
 x8 | x8 | x8 | x8 | x8 | x8 | x8 | x8 | x8 | x8 | x8 | x8 | x8 | x8 | x8 | x8 | x8 | x8 | %148
 x4[K:treble] x4 | x8 | x6[K:bass] x2 | x8 | x8 | x8 | x8 | x8 | x8 | x8 | x8 | %159
 x[K:treble] x5[K:bass] x2 |[K:bass] x4 [A,,C,F,]/z/[G,,B,,E,]/z/[F,,A,,D,]/z/[E,,G,,C,]/ z/ | %161
 [D,,F,,=B,,]4 [=B,,,F,,_A,,]4 | [C,,F,,G,,]4 [C,,E,,G,,]4 | [F,,F,][K:treble] x x2 x4 | %164
 x2[K:bass] x6 | x8 | x8 | x8 | x8 | x8 | x8 | x8 | x8 | x8 | x8 | x8 | x4[K:treble] x4 | %177
 x4[K:bass] x4 | x8 | x8 | x8 | x6 |][K:Ab][M:2/4] x | x4 | x4 | %185
[K:treble] D3/2z/4.D/4 D3/2z/4.D/4 | x4 |[K:bass] x4 | x4 | x4 | x4 | x4 | x4 | x4 | %194
 x3[K:treble] x | x3[K:bass] x | x4 | x4 | x2[K:treble] x2 | x11[K:bass] x2 ||[K:F][M:2/2] x4 | %201
 x8 | x8 | x2[K:treble] x6 | x8 |[K:bass] x8 | x8 | x8 | x8 | x8 | x8 | x8 | x8 | x8 | x8 | x8 | %216
 x8 | x8 | x8 | x8 | C,4 C,2 x2 | x8 | x8 | x8 | x8 | x8 | x8 | x8 | x8 | x8 | x8 | x8 | x8 | x8 | %234
 x8 | x8 | x8 | x8 | x8 | x8 | x8 | x8 | x8 | [_B,,,_B,,]8 | [A,,,A,,]8 | x8 | x8 | x8 | %248
 x2[K:treble] x6 | x8 |[K:bass] x8 | x8 | x8 | x8 | x8 | x8 | x8 | x8 | x8 | x8 | x8 | x8 | x8 | %263
 x8 | x8 | x8 | x8 | x8 | x8 | x8 | x8 | x8 | x8 | x8 | x8 | x8 | x8 | x8 | x8 | x8 | x8 | x8 | %282
 x8 | x8 | x8 | x8 | x8 | x8 | x8 | x8 | x8 | x8 | x8 | x8 | x8 | x8 | x8 | x2[K:treble] x6 | x8 | %299
[K:bass] x8 | x8 | x8 | x8 | x8 | x8 | C,,2[K:treble] C4 x2 |[K:bass] x8 | x8 | x8 | F,4 F, x x2 | %310
 x8 | x8 | x8 | x8 | x8 | x8 | x8 | x8 | x8 | x8 | x8 | x8 | x8 | x8 | x8 | x8 | x8 | x8 | x8 | %329
 C,,8- | !fermata!C,,4 z4 |[K:treble] x8 | x4[K:bass] x4 | x4[K:treble] x4 | x4[K:bass] x4 | x8 | %336
 x8 | x8 | x8 | x8 | x8 | x8 | x8 | x8 | x8 | x8 | x8 | x8 | x8 | x8 | x8 | x8 | x8 | x8 | x8 | %355
 x8 | x8 | x2[K:treble] x6 | x8 | x8 |[K:bass] x8 | x8 | x8 | x8 | x8 | x8 | x8 | x4 |] %368

